Numix-GalliumOS/22/actions/poedit-fuzzy.svg

<?xml version="1.0" encoding="UTF-8" standalone="no"?>
<svg
   xmlns:dc="http://purl.org/dc/elements/1.1/"
   xmlns:cc="http://creativecommons.org/ns#"
   xmlns:rdf="http://www.w3.org/1999/02/22-rdf-syntax-ns#"
   xmlns:svg="http://www.w3.org/2000/svg"
   xmlns="http://www.w3.org/2000/svg"
   xmlns:sodipodi="http://sodipodi.sourceforge.net/DTD/sodipodi-0.dtd"
   xmlns:inkscape="http://www.inkscape.org/namespaces/inkscape"
   width="22"
   viewBox="0 0 22 22"
   height="22"
   id="svg2"
   version="1.1"
   inkscape:version="0.91 r13725"
   sodipodi:docname="poedit-fuzzy3.svg">
  <metadata
     id="metadata16">
    <rdf:RDF>
      <cc:Work
         rdf:about="">
        <dc:format>image/svg+xml</dc:format>
        <dc:type
           rdf:resource="http://purl.org/dc/dcmitype/StillImage" />
        <dc:title></dc:title>
      </cc:Work>
    </rdf:RDF>
  </metadata>
  <defs
     id="defs14" />
  <sodipodi:namedview
     pagecolor="#ffffff"
     bordercolor="#666666"
     borderopacity="1"
     objecttolerance="10"
     gridtolerance="10"
     guidetolerance="10"
     inkscape:pageopacity="0"
     inkscape:pageshadow="2"
     inkscape:window-width="1366"
     inkscape:window-height="704"
     id="namedview12"
     showgrid="false"
     inkscape:zoom="1"
     inkscape:cx="11"
     inkscape:cy="11.972718"
     inkscape:window-x="0"
     inkscape:window-y="27"
     inkscape:window-maximized="1"
     inkscape:current-layer="svg2"
     inkscape:object-paths="false"
     inkscape:snap-intersection-paths="false"
     inkscape:object-nodes="false">
    <inkscape:grid
       type="xygrid"
       id="grid4144" />
  </sodipodi:namedview>
  <g
     style="fill-rule:evenodd"
     id="g4"
     transform="matrix(1.25,0,0,1.25,1.0000002,0.99999993)">
    <path
       inkscape:connector-curvature="0"
       style="fill:#dc322f"
       d="m 16,8.0010954 a 8.0000001,8.0000001 0 0 1 -16.00000005,0 8.0000001,8.0000001 0 1 1 16.00000005,0 z"
       id="path6" />
  </g>
  <path
     style="color:#000000;font-style:normal;font-variant:normal;font-weight:normal;font-stretch:normal;font-size:medium;line-height:normal;font-family:sans-serif;text-indent:0;text-align:start;text-decoration:none;text-decoration-line:none;text-decoration-style:solid;text-decoration-color:#000000;letter-spacing:normal;word-spacing:normal;text-transform:none;direction:ltr;block-progression:tb;writing-mode:lr-tb;baseline-shift:baseline;text-anchor:start;white-space:normal;clip-rule:nonzero;display:inline;overflow:visible;visibility:visible;opacity:1;isolation:auto;mix-blend-mode:normal;color-interpolation:sRGB;color-interpolation-filters:linearRGB;solid-color:#000000;solid-opacity:1;fill:#ffffff;fill-opacity:0.90196078;fill-rule:evenodd;stroke:none;stroke-width:2.5;stroke-linecap:butt;stroke-linejoin:round;stroke-miterlimit:4;stroke-dasharray:none;stroke-dashoffset:0;stroke-opacity:1;color-rendering:auto;image-rendering:auto;shape-rendering:auto;text-rendering:auto;enable-background:accumulate"
     d="M 8.93086,7.0015363 C 7.6616995,6.9625883 6.394268,7.6635206 5,9.1610632 L 6.6391232,10.455848 C 7.8350743,9.1713112 8.5103072,8.9780034 8.8600337,8.9887364 9.2097602,8.9994664 9.6610453,9.2806062 10.308601,9.7774062 10.956155,10.274206 11.79998,10.986668 13.06914,11.025615 14.3383,11.064565 15.605732,10.363632 17,8.8660884 L 15.360877,7.5713038 C 14.164926,8.8558404 13.489693,9.0491482 13.139967,9.0384162 12.79024,9.0276862 12.338954,8.7465464 11.6914,8.2497462 11.043845,7.7529462 10.20002,7.040484 8.93086,7.0015363 Z m 0,3.9743987 C 7.6616995,10.936985 6.394268,11.637919 5,13.135463 l 1.6391232,1.293232 c 1.1959511,-1.284536 1.871184,-1.477845 2.2209105,-1.467112 0.3497265,0.01073 0.8010116,0.291869 1.4485673,0.788669 0.647554,0.4968 1.491379,1.209263 2.760539,1.248211 1.26916,0.03895 2.536592,-0.661985 3.93086,-2.159528 l -1.639123,-1.293232 c -1.195951,1.284536 -1.871184,1.477845 -2.22091,1.467112 -0.349727,-0.01073 -0.801013,-0.291869 -1.448567,-0.78867 -0.647555,-0.496799 -1.49138,-1.209262 -2.76054,-1.24821 z"
     id="path4144"
     inkscape:connector-curvature="0" />
</svg>

<svg xmlns="http://www.w3.org/2000/svg" viewBox="0 0 22 22">
 <g transform="matrix(1.25,0,0,1.25,1.0000002,0.99999993)" style="fill-rule:evenodd">
  <path d="m 16 8 a 8 8 0 0 1 -16 0 8 8 0 1 1 16 0 z" style="fill:#dc322f"/>
 </g>
 <path d="m 8.931 7 c -1.269 -0.039 -2.537 0.662 -3.931 2.16 l 1.639 1.295 c 1.196 -1.285 1.871 -1.478 2.221 -1.467 0.35 0.011 0.801 0.292 1.449 0.789 0.648 0.497 1.491 1.209 2.761 1.248 1.269 0.039 2.537 -0.662 3.931 -2.16 l -1.639 -1.295 c -1.196 1.285 -1.871 1.478 -2.221 1.467 -0.35 -0.011 -0.801 -0.292 -1.449 -0.789 -0.648 -0.497 -1.491 -1.209 -2.761 -1.248 m 0 3.974 c -1.269 -0.039 -2.537 0.662 -3.931 2.16 l 1.639 1.293 c 1.196 -1.285 1.871 -1.478 2.221 -1.467 0.35 0.011 0.801 0.292 1.449 0.789 0.648 0.497 1.491 1.209 2.761 1.248 1.269 0.039 2.537 -0.662 3.931 -2.16 l -1.639 -1.293 c -1.196 1.285 -1.871 1.478 -2.221 1.467 -0.35 -0.011 -0.801 -0.292 -1.449 -0.789 -0.648 -0.497 -1.491 -1.209 -2.761 -1.248 z" mix-blend-mode="normal" isolation="auto" white-space="normal" solid-opacity="1" solid-color="#000000" style="visibility:visible;shape-rendering:auto;color-interpolation-filters:linearRGB;fill:#fff;opacity:1;image-rendering:auto;fill-opacity:0.902;stroke:none;display:inline;color:#000;fill-rule:evenodd;color-rendering:auto;color-interpolation:sRGB"/>
</svg>
